;FLAVOR:Marlin
;TIME:7991.76
;Filament used:8.03026m
;Material Diameter:1.75
;Material Density:1.24
;Filament Cost:0.000000
;Filament Weight:23.950644
;Filament Length:8.030258
;Layer height:0.2
;MINX:59.189
;MINY:49.663
;MINZ:0.2
;MAXX:157.609
;MAXY:153.245
;MAXZ:23
;OuterWall Time:1568.16
;InnerWall Time:1506.86
;Skin Time:2480.52
;Support Time:0
;SkirtBrim Time:14.5419
;Infill Time:1080.38
;Support Infills Time:0
;Combing Time:307.29
;Retraction Time:1034.01
;PrimeTower Time:0
;;;;;;;;;;;;;;;;;;;;;;;;;;;;;;;;;;;;;;;;;;;;;;;;;;;;;;;;;;;;;;;;;;;;;;;;;
;Creality Print GCode Generated by CXEngine
;CRSLICE_GIT_HASH:58ee74d
;Creality Print Version : V4.3.8.6984
;CXEngine Release Time:2023-12-04 18:16:29
;Gcode Generated Time:2024-03-11 12:09:26
;----------Machine Config--------------
;Machine Name:Creality Ender-3
;Machine Height:250
;Machine Width:220
;Machine Depth:220
;Material Type:PLA
;Material Name:Ender-PLA_1.75
;Number of Extruders:1
;ExtruderParams[0] Nozzle Diameter:1000
;----------Profile Config---------------
;Wall Thickness:0.8
;Top/Bottom Thickness:0.8
;Out Wall Line Width:0.4
;Inner Wall Line Width:0.4
;Inital Height:200
;Wall Line Count:2
;Infill Line Distance:8
;Infill Pattern:grid
;Infill Sparse Density:10
;Infill Wipe Distance:0
;Print Temperature:200
;Bed Temperature:60
;Support Enable:false
;Support Density:20
;Support Angle:45
;Adhesion Type:skirt
;machine is belt:false
;machine belt offset:10
;machine belt offset Y:0
;Raft Base Line Spacing:1.6
;Wait Heatup Sync:true
;Enable Ironing:false
;Material Type:PLA
;Max volumetric speed:10
;Preview Img Type:png
;Screen Size:Sermoon D3
;----------Shell Config----------------
;Outer Wall Wipe Distance:2000
;Outer Inset First:false
;Infill Before Walls:false
;Infill Overlap:0.16
;Fill Gaps Between Walls:everywhere
;Minimum Infill Area:15
;Top Surface Skin Layer:0
;Top Layers:4
;Z Seam Alignment:sharpest_corner
;Seam Corner Preference:z_seam_corner_weighted
;Z Seam X:110
;Z Seam Y:220
;Horizontal Expansion:0
;Top/Bottom Pattern:zigzag
;Ironing Pattern:zigzag
;Vase Model:false
;----------Support Config----------------
;Support Type:everywhere
;Support Pattern:zigzag
;Support Infill Layer Thickness:0.2
;Minimum Support Area:1
;Enable Support Roof:true
;Support Roof Thickness:0.8
;Support Roof Pattern:lines
;Connect Support Lines:0
;Connect Support ZigZags:1
;Minimum Support X/Y Distance:0.2
;Support Line Distance:2
; ---------PrintSpeed & Travel----------
;Enable Print Cool:true
;Avoid Printed Parts Traveling:true
;Enable Retraction:true
;Retraction Distance:5
;Retraction Speed:25
;Retraction Prime Speed:25
;Maximum Retraction Count:100
;Minimum Extrusion Distance Window:2
;Z Hop When Retracted:false
;Z Hop Height:0.2
;Retract Before Outer Wall:true

;Outer Wall Speed:50
;Inner Wall Speed:50
;Infill Speed:50
;Top/Bottom Speed:50
;Travel Speed:120
;Initial Layer Speed:20
;Skirt/Brim Speed:25
;Prime Tower Speed:60
;Outer Wall Acceleration:500
;Inner Wall Acceleration:500
;Infill Acceleration:500
;Top/Bottom Acceleration:500
;Travel Acceleration:500
;Initial Layer Print Acceleration:500
;Initial Layer Travel Acceleration:500
;Skirt/Brim Acceleration:500
;Combing Mode:off
; --------SpecialModel&Mesh Fixes--------
;Union Overlapping Volum:true
;Remove All Holes:false
;Maximum Travel Resolution:0.25
;Maximum Deviation:0.05
;Maximum Model Angle:0.872665
;IS Mold Print:false
;Make Overhang Printable:false
;Enable Coasting:false
;Coasting Volumes:0.064
;Coasting Speed:0.9
;Raft AirGap:0.25
;Layer0 ZOverLap:0.13
;Adaptive Layers:0
;---------------------End of Head--------------------------
M140 S60
M105
M190 S60
M104 S200
M82 ;absolute extrusion mode
M220 S100 ;Reset Feedrate
M221 S100 ;Reset Flowrate

G28 ;Home

G92 E0 ;Reset Extruder
G1 Z2.0 F3000 ;Move Z Axis up
G1 X10.1 Y20 Z0.28 F5000.0 ;Move to start position
M109 S200.000000
G1 X10.1 Y145.0 Z0.28 F1500.0 E15 ;Draw the first line
G1 X10.4 Y145.0 Z0.28 F5000.0 ;Move to side a little
G1 X10.4 Y20 Z0.28 F1500.0 E30 ;Draw the second line
G92 E0  ;Reset Extruder
G1 E-1.0000 F1800 ;Retract a bit
G1 Z2.0 F3000 ;Move Z Axis up
G1 E0.0000 F1800 

G92 E0
G92 E0
G1 F1500 E-5
;LAYER_COUNT:115

;LAYER:0
M106 S0
M204 S500
G0 F4800 X61.546 Y97.974 Z0.2
;TYPE:SKIRT
G1 F1500 E0
G1 X61.067 Y98.294 E0.02108
G1 X60.53 Y98.744 E0.04671
G1 X60.209 Y99.137 E0.06527
G1 X60.015 Y99.417 E0.07774
G1 X59.818 Y99.722 E0.09102
G1 X59.515 Y100.333 E0.11597
G1 X59.377 Y100.821 E0.13453
G1 X59.263 Y101.391 E0.15579
G1 X59.2 Y101.97 E0.1771
G1 X59.189 Y102.65 E0.20198
G1 X59.189 Y147.892 E1.85721
G1 X59.201 Y148.589 E1.88272
G1 X59.253 Y149.113 E1.90198
G1 X59.314 Y149.447 E1.91441
G1 X59.391 Y149.801 E1.92766
G1 X59.607 Y150.438 E1.95227
G1 X59.854 Y150.881 E1.97083
G1 X60.176 Y151.364 E1.99206
G1 X60.628 Y151.904 E2.01783
G1 X61.021 Y152.225 E2.03639
G1 X61.301 Y152.419 E2.04886
G1 X61.618 Y152.623 E2.06265
G1 X62.222 Y152.921 E2.08729
G1 X62.71 Y153.059 E2.10584
G1 X63.277 Y153.172 E2.127
G1 X63.856 Y153.234 E2.1483
G1 X64.566 Y153.245 E2.17428
G1 X99.258 Y153.245 E3.44353
G1 X99.977 Y153.232 E3.46984
G1 X100.494 Y153.181 E3.48884
G1 X101.101 Y153.067 E3.51144
G1 X101.572 Y152.929 E3.52939
G1 X102.341 Y152.65 E3.55932
G1 X105.859 Y151.445 E3.69538
G1 X108.453 Y150.651 E3.79463
G1 X111.12 Y149.917 E3.89583
G1 X113.8 Y149.258 E3.9968
G1 X116.418 Y148.697 E4.09476
G1 X119.136 Y148.192 E4.1959
G1 X121.836 Y147.767 E4.2959
G1 X124.563 Y147.418 E4.39648
G1 X127.263 Y147.151 E4.49575
G1 X130.011 Y146.956 E4.59654
G1 X132.726 Y146.841 E4.69596
G1 X135.523 Y146.801 E4.7983
G1 X151.997 Y146.801 E5.40102
G1 X152.983 Y146.783 E5.4371
G1 X153.387 Y146.751 E5.45193
G1 X153.745 Y146.699 E5.46516
G1 X154.409 Y146.528 E5.49025
G1 X154.706 Y146.417 E5.50185
G1 X154.967 Y146.306 E5.51223
G1 X155.406 Y146.052 E5.53078
G1 X155.776 Y145.797 E5.54722
G1 X156.262 Y145.386 E5.57051
G1 X156.585 Y144.996 E5.58904
G1 X156.832 Y144.644 E5.60477
G1 X157.02 Y144.342 E5.61778
G1 X157.228 Y143.879 E5.63636
G1 X157.368 Y143.488 E5.65155
G1 X157.447 Y143.233 E5.66132
G1 X157.539 Y142.734 E5.67988
G1 X157.584 Y142.299 E5.69588
G1 X157.601 Y142.012 E5.7064
G1 X157.609 Y141.423 E5.72795
G1 X157.607 Y112.596 E6.78262
G1 X157.597 Y112.24 E6.79565
G1 X157.55 Y111.781 E6.81253
G1 X157.484 Y111.407 E6.82642
G1 X156.996 Y108.329 E6.94044
G1 X156.647 Y105.6 E7.0411
G1 X156.377 Y102.892 E7.14067
G1 X156.183 Y100.148 E7.24131
G1 X156.068 Y97.433 E7.34073
G1 X156.028 Y94.636 E7.44307
G1 X156.026 Y53.119 E8.96202
G1 X156.017 Y52.802 E8.97362
G1 X155.988 Y52.452 E8.98647
G1 X155.879 Y51.956 E9.00505
G1 X155.693 Y51.484 E9.02361
G1 X155.436 Y51.047 E9.04216
G1 X155.114 Y50.656 E9.06069
G1 X154.734 Y50.32 E9.07925
G1 X154.306 Y50.048 E9.0978
G1 X153.84 Y49.846 E9.11638
G1 X153.349 Y49.721 E9.13492
G1 X152.844 Y49.673 E9.15348
G1 X152.146 Y49.663 E9.17902
G1 X144.206 Y49.665 E9.46951
G1 X143.872 Y49.674 E9.48174
G1 X142.342 Y49.75 E9.53778
G1 X139.577 Y49.827 E9.63898
G1 X136.859 Y49.827 E9.73843
G1 X134.1 Y49.748 E9.83941
G1 X132.536 Y49.676 E9.89669
G1 X131.728 Y49.663 E9.92626
G1 X112.787 Y49.663 E10.61923
G1 X112.312 Y49.674 E10.63662
G1 X111.865 Y49.717 E10.65305
G1 X111.373 Y49.839 E10.67159
G1 X110.906 Y50.037 E10.69015
G1 X110.476 Y50.306 E10.70871
G1 X110.094 Y50.64 E10.72727
G1 X109.769 Y51.029 E10.74582
G1 X109.508 Y51.464 E10.76438
G1 X109.099 Y52.29 E10.7981
G1 X107.857 Y54.719 E10.89791
G1 X106.524 Y57.152 E10.99941
G1 X105.161 Y59.481 E11.09814
G1 X103.693 Y61.835 E11.19963
G1 X102.197 Y64.089 E11.29861
G1 X100.626 Y66.316 E11.39832
G1 X98.967 Y68.531 E11.49957
G1 X97.27 Y70.67 E11.59946
G1 X95.504 Y72.771 E11.69988
G1 X93.696 Y74.802 E11.79936
G1 X91.795 Y76.82 E11.90079
G1 X89.914 Y78.707 E11.99827
G1 X87.88 Y80.634 E12.10078
G1 X85.851 Y82.45 E12.20041
G1 X83.76 Y84.219 E12.30061
G1 X81.64 Y85.91 E12.39983
G1 X79.441 Y87.567 E12.50056
G1 X77.19 Y89.163 E12.60152
G1 X74.923 Y90.677 E12.70126
G1 X72.614 Y92.126 E12.80099
G1 X70.247 Y93.521 E12.90151
G1 X67.851 Y94.842 E13.00161
G1 X65.427 Y96.091 E13.10138
G1 X62.952 Y97.279 E13.20182
G1 X61.981 Y97.729 E13.24097
G1 X61.546 Y97.974 E13.25924
;;retract move;;
G1 F3840 X61.067 Y98.294 E12.07174
G1 X60.53 Y98.744 E10.88424
G1 X60.209 Y99.137 E9.69674
G1 X60.086 Y99.315 E8.50924
G1 F1500 E8.25924
;MESH:0_2
G0 F4800 X63.147 Y101.705
;TYPE:WALL-INNER
G1 F1500 E13.25924
G1 F1200 X63.323 Y101.439 E13.27091
G1 X63.589 Y101.263 E13.28258
G1 X63.979 Y101.185 E13.29713
G1 X99.838 Y101.185 E14.60907
G1 X100.228 Y101.262 E14.62362
G1 X100.494 Y101.439 E14.63531
G1 X100.671 Y101.705 E14.64699
G1 X100.749 Y102.095 E14.66155
G1 X100.748 Y148.455 E16.35768
G1 X100.67 Y148.845 E16.37223
G1 X100.493 Y149.111 E16.38392
G1 X100.228 Y149.288 E16.39558
G1 X99.839 Y149.365 E16.41009
G1 X63.979 Y149.365 E17.72207
G1 X63.589 Y149.287 E17.73662
G1 X63.323 Y149.11 E17.74831
G1 X63.147 Y148.845 E17.75995
G1 X63.069 Y148.455 E17.7745
G1 X63.069 Y102.095 E19.47063
G1 X63.147 Y101.705 E19.48518
;;retract move;;
G1 F3840 X63.323 Y101.439 E18.29768
G1 X63.589 Y101.263 E17.11018
G1 X63.979 Y101.185 E15.92268
G1 X64.946 Y101.185 E14.73518
G1 F1500 E14.48518
G0 F4800 X62.732 Y101.534
;TYPE:WALL-OUTER
G1 F1500 E19.48518
G1 F1200 X63.006 Y101.122 E19.50329
G1 X63.418 Y100.848 E19.52139
G1 X63.936 Y100.745 E19.54071
G1 X99.882 Y100.745 E20.85584
G1 X100.4 Y100.848 E20.87516
G1 X100.811 Y101.122 E20.89323
G1 X101.085 Y101.534 E20.91133
G1 X101.189 Y102.052 E20.93066
G1 X101.188 Y148.498 E22.62994
G1 X101.085 Y149.016 E22.64927
G1 X100.811 Y149.428 E22.66737
G1 X100.4 Y149.702 E22.68544
G1 X99.882 Y149.805 E22.70476
G1 X63.936 Y149.805 E24.01989
G1 X63.418 Y149.702 E24.03921
G1 X63.006 Y149.428 E24.05731
G1 X62.732 Y149.016 E24.07542
G1 X62.629 Y148.498 E24.09474
G1 X62.629 Y102.052 E25.79402
G1 X62.732 Y101.534 E25.81334
;;retract move;;
G1 F3840 X63.006 Y101.122 E24.62584
G1 X63.418 Y100.848 E23.43834
G1 X63.936 Y100.745 E22.25084
G1 X64.42 Y100.745 E21.06334
G1 F1500 E20.81334
G0 F4800 X63.773 Y101.655
;TYPE:SKIN
G1 F1500 E25.81334
G1 F1200 X63.489 Y101.94 E25.82806
G1 X63.489 Y148.408 E27.52815
G1 X63.539 Y148.66 E27.53755
G1 X63.772 Y148.895 E27.54965
G1 X64.025 Y148.945 E27.55909
G1 X99.792 Y148.944 E28.86767
G1 X100.045 Y148.894 E28.8771
G1 X100.277 Y148.662 E28.88911
G1 X100.327 Y148.409 E28.89854
G1 X100.328 Y102.142 E30.59127
G1 X100.279 Y101.889 E30.6007
G1 X100.044 Y101.654 E30.61286
G1 X99.792 Y101.605 E30.62225
G1 X64.025 Y101.605 E31.93083
G1 X63.773 Y101.655 E31.94023
;;retract move;;
G1 F3840 X64.025 Y101.605 E30.3569
G1 X65.769 Y101.605 E28.77356
G1 X64.025 Y101.605 E27.19023
G1 F1500 E26.94023
G0 F4800 X100.107 Y102.596
G1 F1500 E31.94023
G1 F1200 X99.335 Y101.824 E31.98017
G1 X98.713 Y101.824
G1 X100.107 Y103.219 E32.05232
G1 X100.107 Y103.841
G1 X98.091 Y101.824 E32.15666
G1 X97.469 Y101.824
G1 X100.107 Y104.463 E32.29318
G1 X100.107 Y105.085
G1 X96.846 Y101.824 E32.4619
G1 X96.224 Y101.824
G1 X100.107 Y105.708 E32.66284
G1 X100.107 Y106.33
G1 X95.602 Y101.824 E32.89596
G1 X94.979 Y101.824
G1 X100.107 Y106.952 E33.16128
G1 X100.107 Y107.574
G1 X94.357 Y101.824 E33.45879
G1 X93.735 Y101.824
G1 X100.107 Y108.197 E33.78851
G1 X100.107 Y108.819
G1 X93.113 Y101.824 E34.15041
G1 X92.49 Y101.824
G1 X100.107 Y109.441 E34.54452
G1 X100.107 Y110.063
G1 X91.868 Y101.824 E34.97081
G1 X91.246 Y101.824
G1 X100.107 Y110.686 E35.42931
G1 X100.107 Y111.308
G1 X90.624 Y101.824 E35.91999
G1 X90.001 Y101.824
G1 X100.107 Y111.93 E36.44288
G1 X100.107 Y112.553
G1 X89.379 Y101.824 E36.99798
G1 X88.757 Y101.824
G1 X100.107 Y113.175 E37.58526
G1 X100.107 Y113.797
G1 X88.135 Y101.824 E38.20473
G1 X87.512 Y101.824
G1 X100.107 Y114.419 E38.8564
G1 X100.107 Y115.042
G1 X86.89 Y101.824 E39.54028
G1 X86.268 Y101.824
G1 X100.107 Y115.664 E40.25634
G1 X100.107 Y116.286
G1 X85.646 Y101.824 E41.00459
G1 X85.023 Y101.824
G1 X100.107 Y116.908 E41.78505
G1 X100.107 Y117.531
G1 X84.401 Y101.824 E42.59771
G1 X83.779 Y101.824
G1 X100.107 Y118.153 E43.44256
G1 X100.107 Y118.775
G1 X83.157 Y101.824 E44.31959
G1 X82.534 Y101.824
G1 X100.107 Y119.397 E45.22883
G1 X100.107 Y120.02
G1 X81.912 Y101.824 E46.17027
G1 X81.29 Y101.824
G1 X100.107 Y120.642 E47.1439
G1 X100.107 Y121.264
G1 X80.668 Y101.824 E48.14971
G1 X80.045 Y101.824
G1 X100.107 Y121.886 E49.18773
G1 X100.107 Y122.509
G1 X79.423 Y101.824 E50.25796
G1 X78.801 Y101.824
G1 X100.107 Y123.131 E51.36037
G1 X100.107 Y123.753
G1 X78.179 Y101.824 E52.49497
G1 X77.556 Y101.824
G1 X100.107 Y124.375 E53.66177
G1 X100.107 Y124.998
G1 X76.934 Y101.824 E54.86078
G1 X76.312 Y101.824
G1 X100.107 Y125.62 E56.09198
G1 X100.107 Y126.242
G1 X75.69 Y101.824 E57.35535
G1 X75.067 Y101.824
G1 X100.107 Y126.864 E58.65094
G1 X100.107 Y127.487
G1 X74.445 Y101.824 E59.97873
G1 X73.823 Y101.824
G1 X100.107 Y128.109 E61.33871
G1 X100.107 Y128.731
G1 X73.201 Y101.824 E62.73087
G1 X72.578 Y101.824
G1 X100.107 Y129.353 E64.15524
G1 X100.107 Y129.976
G1 X71.956 Y101.824 E65.61181
G1 X71.334 Y101.824
G1 X100.107 Y130.598 E67.10057
G1 X100.107 Y131.22
G1 X70.712 Y101.824 E68.62151
G1 X70.089 Y101.824
G1 X100.107 Y131.842 E70.17466
G1 X100.107 Y132.465
G1 X69.467 Y101.824 E71.76002
G1 X68.845 Y101.824
G1 X100.107 Y133.087 E73.37756
G1 X100.107 Y133.709
G1 X68.223 Y101.824 E75.02729
G1 X67.6 Y101.824
G1 X100.107 Y134.331 E76.70922
G1 X100.107 Y134.954
G1 X66.978 Y101.824 E78.42336
G1 X66.356 Y101.824
G1 X100.107 Y135.576 E80.16969
G1 X100.107 Y136.198
G1 X65.734 Y101.824 E81.94819
G1 X65.111 Y101.824
G1 X100.107 Y136.82 E83.75891
G1 X100.107 Y137.443
G1 X64.489 Y101.824 E85.60183
G1 X63.89 Y101.848
G1 X100.107 Y138.065 E87.47572
G1 X100.107 Y138.687
G1 X63.708 Y102.288 E89.35903
G1 X63.708 Y102.91
G1 X100.107 Y139.309 E91.24233
G1 X100.107 Y139.932
G1 X63.708 Y103.533 E93.12564
G1 X63.708 Y104.155
G1 X100.107 Y140.554 E95.00895
G1 X100.107 Y141.176
G1 X63.708 Y104.777 E96.89226
G1 X63.708 Y105.399
G1 X100.107 Y141.798 E98.77556
G1 X100.107 Y142.421
G1 X63.708 Y106.022 E100.65887
G1 X63.708 Y106.644
G1 X100.107 Y143.043 E102.54218
G1 X100.107 Y143.665
G1 X63.708 Y107.266 E104.42548
G1 X63.708 Y107.888
G1 X100.107 Y144.287 E106.30879
G1 X100.107 Y144.91
G1 X63.708 Y108.511 E108.1921
G1 X63.708 Y109.133
G1 X100.107 Y145.532 E110.07541
G1 X100.107 Y146.154
G1 X63.708 Y109.755 E111.95871
G1 X63.708 Y110.377
G1 X100.107 Y146.776 E113.84202
G1 X100.107 Y147.399
G1 X63.708 Y111 E115.72533
G1 X63.708 Y111.622
G1 X100.107 Y148.021 E117.60863
G1 X100.045 Y148.581
G1 X63.708 Y112.244 E119.48873
G1 X63.708 Y112.866
G1 X99.564 Y148.722 E121.34395
G1 X98.942 Y148.722
G1 X63.708 Y113.489 E123.16695
G1 X63.708 Y114.111
G1 X98.32 Y148.722 E124.95777
G1 X97.698 Y148.722
G1 X63.708 Y114.733 E126.71641
G1 X63.708 Y115.355
G1 X97.075 Y148.722 E128.44284
G1 X96.453 Y148.722
G1 X63.708 Y115.978 E130.13706
G1 X63.708 Y116.6
G1 X95.831 Y148.722 E131.7991
G1 X95.209 Y148.722
G1 X63.708 Y117.222 E133.42895
G1 X63.708 Y117.845
G1 X94.586 Y148.722 E135.02657
G1 X93.964 Y148.722
G1 X63.708 Y118.467 E136.59201
G1 X63.708 Y119.089
G1 X93.342 Y148.722 E138.12527
G1 X92.72 Y148.722
G1 X63.708 Y119.711 E139.62634
G1 X63.708 Y120.334
G1 X92.097 Y148.722 E141.09518
G1 X91.475 Y148.722
G1 X63.708 Y120.956 E142.53184
G1 X63.708 Y121.578
G1 X90.853 Y148.722 E143.93631
G1 X90.231 Y148.722
G1 X63.708 Y122.2 E145.3086
G1 X63.708 Y122.823
G1 X89.608 Y148.722 E146.64866
G1 X88.986 Y148.722
G1 X63.708 Y123.445 E147.95653
G1 X63.708 Y124.067
G1 X88.364 Y148.722 E149.23222
G1 X87.742 Y148.722
G1 X63.708 Y124.689 E150.47573
G1 X63.708 Y125.312
G1 X87.119 Y148.722 E151.687
G1 X86.497 Y148.722
G1 X63.708 Y125.934 E152.86609
G1 X63.708 Y126.556
G1 X85.875 Y148.722 E154.013
G1 X85.253 Y148.722
G1 X63.708 Y127.178 E155.12773
G1 X63.708 Y127.801
G1 X84.63 Y148.722 E156.21022
G1 X84.008 Y148.722
G1 X63.708 Y128.423 E157.26053
G1 X63.708 Y129.045
G1 X83.386 Y148.722 E158.27866
G1 X82.764 Y148.722
G1 X63.708 Y129.667 E159.2646
G1 X63.708 Y130.29
G1 X82.141 Y148.722 E160.21831
G1 X81.52 Y148.723
G1 X63.708 Y130.912 E161.13989
G1 X63.708 Y131.534
G1 X80.897 Y148.723 E162.02926
G1 X80.275 Y148.723
